app/themes/uggwc_pro/assets/images/thema/Wirtschaftsinformatik.svg

<svg width="16" height="16" viewBox="0 0 16 16" fill="none" xmlns="http://www.w3.org/2000/svg">
<path d="M4.8 2H1.2C0.5375 2 0 2.5375 0 3.2V11.2C0 11.8625 0.5375 12.4 1.2 12.4H4.0675C4.2325 11.935 4.6775 11.6 5.2 11.6V8.8C5.2 7.695 6.095 6.8 7.2 6.8H8V5.2H5.6C5.1575 5.2 4.8 4.8425 4.8 4.4V2ZM7.2 7.6C6.5375 7.6 6 8.1375 6 8.8V9.2V11.6V12.4H5.2C4.98 12.4 4.8 12.58 4.8 12.8V13.2C4.8 14.0825 5.5175 14.8 6.4 14.8H14.4C15.2825 14.8 16 14.0825 16 13.2V12.8C16 12.58 15.82 12.4 15.6 12.4H14.8V9.2C14.8 8.3175 14.0825 7.6 13.2 7.6H8H7.6H7.2ZM8 9.2H13.2V12.4H7.6V9.2H8ZM5.6 2V4.4H8L5.6 2Z" fill="#6E6CFF"/>
</svg>

<svg width="16" height="16" fill="none" xmlns="http://www.w3.org/2000/svg"><path d="M4.8 2H1.2A1.2 1.2 0 0 0 0 3.2v8a1.2 1.2 0 0 0 1.2 1.2h2.867c.165-.465.61-.8 1.133-.8V8.8a2 2 0 0 1 2-2H8V5.2H5.6a.8.8 0 0 1-.8-.8V2zm2.4 5.6A1.2 1.2 0 0 0 6 8.8V12.4h-.8c-.22 0-.4.18-.4.4v.4c0 .883.718 1.6 1.6 1.6h8c.883 0 1.6-.718 1.6-1.6v-.4c0-.22-.18-.4-.4-.4h-.8V9.2c0-.882-.718-1.6-1.6-1.6H7.2zM8 9.2h5.2v3.2H7.6V9.2H8zM5.6 2v2.4H8L5.6 2z" fill="#6E6CFF"/></svg>
